static/images/mobile/copyright/wikipedia-wordmark-kcg.svg

<?xml version="1.0" encoding="UTF-8"?>
<svg width="120px" height="18px" viewBox="0 0 120 18" version="1.1" xmlns="http://www.w3.org/2000/svg" xmlns:xlink="http://www.w3.org/1999/xlink">
    <title>wikipedia-wordmark-kcg</title>
    <g id="Page-1" stroke="none" stroke-width="1" fill="none" fill-rule="evenodd">
        <path d="M81.9021177,16.6869431 L82.5058684,16.6334335 C83.294379,16.5546834 83.5568793,16.3184331 83.5568793,15.5056917 L83.5568793,6.8431813 C83.5568793,6.15866125 83.3711098,6.15866125 82.5058684,6.08193039 L81.9303869,6.02741109 C81.8253868,6.02741109 81.7446175,5.97491103 81.7446175,5.89616093 L81.7446175,5.31866024 L81.7698579,5.26616018 C81.7698579,5.26616018 84.0808703,5.31866024 84.5543805,5.31866024 C85.0511118,5.31866024 87.3368838,5.26616018 88.0193846,5.26616018 C92.4031399,5.26616018 94.5566521,7.99616346 94.5566521,11.4874177 C94.5566521,16.0821828 91.3006386,17.4451652 88.3889043,17.4451652 C86.2889018,17.4451652 85.3711603,17.3916555 84.5574093,17.3916555 C83.7688988,17.3916555 81.7728867,17.4451652 81.7728867,17.4451652 L81.7476463,17.3916555 L81.7476463,16.8404049 C81.7446175,16.7656932 81.7981272,16.6869431 81.9021177,16.6869431 L81.9021177,16.6869431 Z M87.7568843,16.6869431 C90.6433782,16.6869431 92.2728994,15.6127111 92.2728994,11.9346778 C92.2728994,9.20568414 91.668139,6.02741109 87.2581337,6.02741109 C86.2343825,6.02741109 85.5781317,6.18491128 85.5781317,6.8431813 L85.5781317,15.5056917 C85.5781317,16.2386734 85.7608723,16.6869431 87.7568843,16.6869431 Z M27.7614276,0 L27.8199854,0.0514904465 L27.8199854,0.554279512 C27.8199854,0.690577753 27.7422449,0.759231682 27.5887832,0.759231682 C26.8356092,0.79254903 26.2772912,0.956106918 25.9158485,1.24788612 C25.5533961,1.54168455 25.2707035,1.94553118 25.0677705,2.47255105 C25.0677705,2.47255105 23.6508376,5.71544736 22.1095548,9.22564123 L21.8775913,9.75380309 C21.7613048,10.0185144 21.6446824,10.2838924 21.5282694,10.5486818 L21.2602438,11.1581178 C20.2806664,13.3846946 19.346113,15.4999866 18.7869457,16.7434817 C18.4927838,17.3036977 18.200948,17.5703528 17.9183611,17.5752688 C17.6112156,17.5805944 17.3159343,17.27874 17.0403089,16.7101643 C16.5833029,15.7689544 15.7875434,14.0464585 15.0056998,12.3372641 L14.7719168,11.8256994 L14.5639749,11.3699139 C14.3643524,10.9320401 14.1702571,10.5053864 13.9879843,10.1041367 C12.9051386,12.3377649 11.4221589,15.3659787 10.6867917,16.729347 C10.3293874,17.350766 10.0035337,17.6208385 9.70847321,17.6045584 C9.41240314,17.5882784 9.148136,17.2856458 8.91390494,16.7616548 C7.28741261,12.9241021 3.9476009,6.1859209 2.37562786,2.40995482 C2.08485828,1.71432898 1.86577147,1.26807845 1.65880007,1.09139554 C1.45081905,0.916731871 1.01870315,0.811731745 0.361442742,0.776395164 C0.120144375,0.750145132 0,0.69158737 0,0.596683409 L0,0.0706731619 L0.0585577627,0.0191827154 C0.152986609,0.0186482125 0.279407027,0.0182080336 0.431438271,0.0178496947 L0.957983741,0.0170077139 L1.05799278,0.0169098643 L3.58565335,0.016911078 C3.66968908,0.0169556199 3.75326193,0.0170027819 3.83613557,0.0170521017 L4.99725887,0.017895932 C5.06723231,0.0179552698 5.13532492,0.0180144535 5.20130038,0.0180730208 L6.10916003,0.0189607764 L6.1545721,0.0190099613 L6.30909412,0.0191827154 L6.36765188,0.0706731619 L6.36765188,0.571442995 C6.36765188,0.709760468 6.27981524,0.776395164 6.1071708,0.776395164 L5.45495848,0.803654812 C4.89563088,0.826875994 4.61596709,0.994472349 4.61596709,1.30442464 C4.61596709,1.44879982 4.67452485,1.68404049 4.80476539,1.99904086 C5.32280315,3.26154901 6.36688837,5.562841 7.41297055,7.82706102 L7.67422943,8.39172109 C9.06459712,11.3924813 10.3808779,14.1679497 10.3808779,14.1679497 L10.5383781,14.209344 L13.3266348,8.64563782 C12.9853188,7.89159372 12.7676115,7.4085666 12.7676115,7.4085666 L10.8513592,3.64269669 C10.8513592,3.64269669 10.4808299,2.8895227 10.3546278,2.63913779 C9.51260759,0.971251167 9.53078069,0.882404907 8.67967389,0.769327848 C8.44140438,0.738029733 8.31823115,0.707741235 8.31823115,0.589616093 L8.31823115,0.0615866125 L8.38991393,0.010096166 L8.54976185,0.00990089865 L9.49613064,0.00911078018 C9.56543073,0.00906770321 9.63564507,0.00902642111 9.70657718,0.00898685909 L13.3501603,0.00807693278 L13.4814104,0.0514904465 L13.4814104,0.577500694 C13.4814104,0.697645069 13.395593,0.759231682 13.2209294,0.759231682 L12.8615058,0.810722128 C11.9528509,0.88139529 12.1012645,1.2529342 12.7050153,2.45538757 L14.544,6.218 L16.5758853,2.16663722 C16.9161261,1.42456902 16.8464626,1.23879957 16.7061258,1.06716474 C16.6253565,0.971251167 16.3547793,0.815770211 15.7661728,0.79254903 L15.5349706,0.767308615 C15.4764128,0.767308615 15.4218935,0.747116283 15.3683839,0.707741235 C15.3158838,0.670385421 15.2896338,0.621923824 15.2896338,0.560337212 L15.2896338,0.0595673793 L15.3613165,0.00807693278 C15.5598977,0.00668435817 15.7926113,0.00567594206 16.0462636,0.0049722034 L16.4407967,0.00413516836 L16.5431778,0.00399033274 L17.927145,0.00394391703 L18.032115,0.00404901212 L18.5392522,0.00471885749 C18.604387,0.00482110657 18.6683566,0.0049274953 18.7309549,0.00503678177 L19.0884394,0.00571733846 C19.1447278,0.00583324835 19.1992324,0.00594957221 19.2517473,0.00606506815 L19.5413098,0.00673817348 C19.5850409,0.00684539013 19.6263698,0.00694929507 19.6650905,0.00704864641 L19.9913484,0.00794280847 L20.0158224,0.00801585011 L20.0358414,0.00807693278 L20.0933895,0.0605769959 L20.0933895,0.561346829 C20.0933895,0.699664302 20.0156491,0.768318231 19.8621873,0.768318231 C19.1090134,0.803654812 18.954542,0.87836644 18.6789167,1.27514576 C18.5284838,1.49120372 18.2316565,1.95663697 17.9237235,2.47961836 L15.2805472,7.42270123 C15.2805472,7.42270123 15.2552293,7.4755993 15.2081804,7.57371002 L18.4366087,14.1820844 L18.6314647,14.235594 L23.7199324,2.1595699 C23.8966153,1.6729347 23.8693556,1.32764583 23.6421919,1.12471289 C23.4140185,0.927837654 23.2534895,0.809712512 22.6638734,0.785481713 L22.1863247,0.762260532 C22.127767,0.762260532 22.0722381,0.741058583 22.0187284,0.700673919 C21.9662283,0.663318105 21.9389687,0.613846892 21.9389687,0.554279512 L21.9389687,0.0514904465 L22.0116611,0 L27.7614276,0 Z M37.4128575,5.29752896 C37.5082158,5.40904112 37.5082158,5.81791565 37.4128575,5.92944799 C36.4752669,6.04101063 36.1892022,6.07816452 36.1892022,7.62075772 L36.1892022,11.8396426 C36.1892022,15.1478533 35.1561624,17.5082359 31.8982306,17.5082359 C31.1353643,17.5082359 29.6732881,17.4896489 28.6879527,16.7276307 C27.7820541,16.0584568 27.3052828,14.7388879 27.3052828,12.9361165 L27.3052828,7.62058608 C27.3052828,6.0779525 27.03517,5.98510816 26.0816275,5.92927636 C25.9862692,5.81774401 25.9862692,5.40886948 26.0816275,5.29735733 C26.8762967,5.31603524 27.6708751,5.33461218 28.4019284,5.33461218 C29.1488427,5.33461218 30.2136753,5.31593427 30.9924026,5.29735733 C31.0877609,5.40886948 31.0877609,5.81774401 30.9924026,5.92927636 C29.7686665,5.98510816 29.5302759,6.07799288 29.5302759,7.62058608 L29.530833,12.5514339 C29.5371766,13.7031463 29.6107392,14.9795048 30.3407961,15.79843 C30.817537,16.3374139 31.4691739,16.7277014 32.2320099,16.7277014 C34.9177718,16.7277014 35.1561624,14.255857 35.1561624,12.1742295 L35.1561624,7.62075772 C35.1561624,6.07812413 34.885989,6.05954719 33.6940357,5.92944799 C33.5986774,5.81791565 33.5986774,5.40904112 33.6940357,5.29752896 C33.7735037,5.29960429 33.8543437,5.30167836 33.9359237,5.30372585 L34.429228,5.31548892 C34.9213009,5.3265274 35.3945127,5.33478382 35.7123602,5.33478382 C36.1415482,5.33478382 36.7930538,5.31610591 37.4128575,5.29752896 Z M107.770489,17.4497983 C107.766476,17.4512229 105.129545,17.4019084 104.361206,17.3979632 C104.140145,17.3977132 103.824927,17.4030494 103.494622,17.4103515 L103.16241,17.418184 C102.555582,17.4332875 101.992478,17.4512229 101.992478,17.4512229 C101.938587,17.4503668 101.911709,17.4512229 101.911709,17.4512229 L101.858199,17.3977132 L101.858199,16.8989626 C101.858199,16.7687221 101.936949,16.689972 102.069209,16.689972 C103.22522,16.6112219 103.879452,16.400212 104.614453,14.72021 L110.44095,1.06918398 C110.728691,0.386683157 110.939701,0.123173225 111.33547,0.123173225 L111.368378,0.124518333 C111.384032,0.123618 111.39998,0.123173225 111.41624,0.123173225 C111.781721,0.123173225 111.913981,0.386683157 112.122971,0.911683788 L117.504228,15.1392009 C117.872738,16.1639617 118.398748,16.5567026 119.448749,16.6617027 L119.73649,16.6869431 C119.86875,16.6869431 120,16.7646836 120,16.897953 L120,17.3946844 L119.92125,17.448194 C119.92125,17.448194 119.894589,17.4474882 119.84584,17.4462388 C119.840481,17.448194 117.991168,17.3992362 116.933535,17.394979 L116.875237,17.3946844 C116.581236,17.3946844 116.117788,17.4001638 115.623445,17.4076157 L115.249059,17.4135198 C114.309437,17.4289306 113.382973,17.448194 113.382973,17.448194 C113.329218,17.4476323 113.302203,17.448194 113.302203,17.448194 L113.277973,17.3946844 L113.277973,16.897953 C113.277973,16.7646836 113.330473,16.6869431 113.464752,16.6869431 L114.199753,16.6334335 C115.196244,16.555693 115.565764,16.2386734 115.302254,15.5056917 L113.701002,11.0674171 L108.319746,11.0674171 C107.689745,11.0674171 107.532245,11.1724173 107.402004,11.5116485 L105.878493,15.3189126 C105.615992,15.9792019 105.957243,16.5577122 106.928494,16.6364623 L107.689745,16.689972 C107.794745,16.689972 107.899745,16.7687221 107.899745,16.8989626 L107.899745,17.3977132 L107.847245,17.4512229 L107.833837,17.4509729 L107.770489,17.4497983 Z M110.745,2.996 L108.135995,9.62669426 C108.030995,9.89121381 108.213736,9.96794467 108.791237,9.96794467 L113.278982,9.96794467 L110.745,2.996 Z M42.1938969,15.6369419 C42.1938969,16.2144426 42.5351473,16.5031929 43.2963982,16.6344431 L43.5851485,16.6879527 C43.6638986,16.7131932 43.7426487,16.7394432 43.7426487,16.8444433 L43.7426487,17.395694 L43.7163987,17.4492037 C43.7163987,17.4492037 42.0626467,17.395694 41.2751458,17.395694 C40.5401449,17.395694 38.3876423,17.4492037 38.3876423,17.4492037 L38.3351422,17.395694 L38.3351422,16.8444433 C38.3351422,16.7394432 38.4138923,16.6879527 38.5188925,16.6879527 L39.0438931,16.6344431 C39.831394,16.555693 40.1726444,16.1356925 40.1726444,15.6369419 L40.1726444,6.89568137 C40.1726444,6.3201999 39.8838941,6.15967086 39.0438931,6.08294 L38.5188925,6.02842071 C38.4138923,6.02842071 38.3351422,6.00418991 38.3351422,5.92342058 L38.3351422,5.31866024 L38.3613923,5.26616018 C38.3613923,5.26616018 40.5138948,5.31866024 41.3276458,5.31866024 C42.0636563,5.31866024 43.7163987,5.26616018 43.7163987,5.26616018 L43.7426487,5.31866024 L43.7426487,5.89616093 C43.7426487,5.97491103 43.6901487,6.00116106 43.5851485,6.02741109 L43.2963982,6.08092077 C42.4826472,6.23741134 42.1938969,6.36967112 42.1938969,6.89568137 L42.1938969,10.8604457 C43.0601479,10.8604457 43.5588985,10.4162144 44.7138999,9.18044373 C45.7639012,8.02342311 46.5776521,7.0562104 46.5776521,6.55443095 C46.5776521,6.34342109 46.3414019,6.10919004 45.8164012,6.02842071 C45.7114011,6.00418991 45.658901,5.97592064 45.658901,5.89717055 L45.658901,5.29140059 L45.6851511,5.26716979 C45.6851511,5.26716979 47.8114036,5.31966986 48.5726545,5.31966986 C49.2551554,5.31966986 50.4101567,5.26716979 50.4101567,5.26716979 L50.4889068,5.29140059 L50.4889068,5.89717055 C50.4889068,5.97592064 50.4101567,6.02842071 50.2789066,6.02842071 C49.2551554,6.1071708 48.5464045,6.15967086 47.6014034,7.23592216 L45.3439007,9.83265605 C44.8976501,10.3071758 44.7401499,10.593907 44.7401499,10.8049168 C44.7401499,10.962417 44.8451501,11.0926576 44.9764002,11.2501578 L48.940155,16.0276635 C49.2551554,16.3941543 49.8851561,16.5526641 50.4101567,16.6566546 L50.5414069,16.6818951 C50.620157,16.7071355 50.7251571,16.7596355 50.7251571,16.8383856 L50.7251571,17.3896363 L50.646407,17.4158863 C50.646407,17.4158863 49.2551554,17.3896363 48.5201545,17.3896363 C47.8639037,17.3896363 46.9189025,17.4158863 46.9189025,17.4158863 L46.8926525,17.3896363 L46.8926525,17.0746359 C46.8926525,16.7323759 46.8664025,16.4456448 46.498902,16.0256443 L43.5851485,12.4021303 C43.1913981,11.87612 42.7713976,11.7468891 42.1938969,11.7468891 L42.1938969,15.6369419 Z M55.9650673,15.6369419 C55.9650673,16.2144426 56.2275676,16.555693 57.0675686,16.6344431 L57.6188193,16.6879527 C57.6975693,16.6879527 57.7763194,16.7394432 57.7763194,16.8444433 L57.7763194,17.395694 L57.7500694,17.4492037 C57.7500694,17.4492037 55.755067,17.395694 54.941316,17.395694 C54.2063152,17.395694 52.1588127,17.4492037 52.1588127,17.4492037 L52.1063126,17.395694 L52.1063126,16.8444433 C52.1063126,16.7394432 52.1850627,16.6879527 52.2900628,16.6879527 L52.8150635,16.6344431 C53.6813145,16.555693 53.9438148,16.1356925 53.9438148,15.6369419 L53.9438148,6.89568137 C53.9438148,6.3201999 53.6288145,6.15967086 52.8150635,6.08294 L52.2900628,6.02842071 C52.1850627,6.02842071 52.1063126,6.00418991 52.1063126,5.92342058 L52.1063126,5.31866024 L52.1325627,5.26616018 C52.1325627,5.26616018 54.2063152,5.31866024 55.0200661,5.31866024 C55.728817,5.31866024 57.7500694,5.26616018 57.7500694,5.26616018 L57.7763194,5.31866024 L57.7763194,5.89616093 C57.7763194,5.97491103 57.7238194,6.02741109 57.6188193,6.02741109 L57.0675686,6.08092077 C56.2538176,6.15866125 55.9650673,6.36967112 55.9650673,6.89568137 L55.9650673,15.6369419 Z M61.253439,6.94414296 C61.253439,6.13039198 60.9121886,6.10414195 59.6784371,6.02539186 C59.5209369,6.02539186 59.4946869,5.94765138 59.4946869,5.8941417 L59.4946869,5.29039097 L59.547187,5.26414094 C59.9409374,5.26414094 61.4896893,5.31664101 62.2509402,5.31664101 C62.9859411,5.31664101 64.0359424,5.26414094 65.0071935,5.26414094 C68.7326788,5.26414094 69.4151796,7.10063353 69.4151796,8.46765441 C69.4151796,10.0436659 68.6539287,12.5101593 64.9284434,12.5101593 C64.2721926,12.5101593 63.747192,12.4566496 63.2736818,12.247659 L63.2736818,15.7631439 C63.2736818,16.339635 63.5886822,16.4729044 64.4296928,16.603145 L64.9557031,16.6818951 C65.0607032,16.7071355 65.1404629,16.7354047 65.1404629,16.8383856 L65.1404629,17.3896363 L65.1162321,17.443146 C65.1162321,17.443146 63.01522,17.3896363 62.201469,17.3896363 C61.4664681,17.3896363 59.4977157,17.443146 59.4977157,17.443146 L59.4714657,17.3896363 L59.4714657,16.8383856 C59.4714657,16.7333855 59.5239658,16.7071355 59.6289659,16.6818951 L60.1802166,16.603145 C60.9939675,16.4981448 61.2564679,16.2618945 61.2564679,15.7631439 L61.253439,6.94414296 Z M63.2746914,11.5126581 C63.7996921,11.7236679 64.4559429,11.7489084 64.9809435,11.7489084 C66.556955,11.7489084 67.3151771,10.801888 67.3151771,8.78265479 C67.3151771,6.52515207 66.2914258,6.02640147 64.8496933,6.02640147 C63.5886822,6.02640147 63.2736818,6.26265176 63.2736818,6.94515258 L63.2746914,11.5126581 Z M72.410712,17.3936748 C71.6232111,17.3936748 69.8129685,17.4471844 69.8129685,17.4471844 L69.7857089,17.3936748 L69.7857089,16.8161741 C69.7857089,16.7646836 69.8129685,16.6859335 69.9432091,16.6859335 L70.548979,16.6324238 C71.3637396,16.5536737 71.5999899,16.0286731 71.5999899,15.5046821 L71.5999899,6.84217169 C71.5999899,6.23640173 71.2849895,6.13241122 70.548979,6.08092077 L69.9432091,6.02640147 C69.7857089,6.00217068 69.7857089,5.948661 69.7857089,5.92140135 L69.7857089,5.31664101 L69.8129685,5.26414094 C69.8129685,5.26414094 71.8594614,5.31664101 72.6469623,5.31664101 L76.505717,5.31664101 C77.2932179,5.31664101 79.1579798,5.26414094 79.1579798,5.26414094 L79.2124991,5.31664101 C79.2367299,6.44539236 79.4204801,7.47116283 79.6062495,8.46765441 L78.952018,8.57265453 C78.6642772,7.60039375 78.1655266,6.21015169 76.4855246,6.21015169 L74.3855221,6.21015169 C73.8867715,6.21015169 73.6242712,6.39390192 73.6242712,6.83914284 L73.6242712,10.646407 L75.5920139,10.646407 C76.3280244,10.646407 76.510765,10.3314066 76.6167748,9.80640602 L76.7732654,9.25515535 C76.7732654,9.17640526 76.826775,9.12289558 76.9307655,9.12289558 L77.3749968,9.12289558 C77.4295161,9.12289558 77.4295161,9.15015523 77.4295161,9.20164568 C77.3749968,9.77813675 77.272016,10.5151569 77.272016,11.1451576 C77.272016,11.8003988 77.3770161,12.3526591 77.4295161,12.9564098 L77.3749968,13.0099195 L76.9307655,13.0099195 C76.800525,13.0099195 76.7449961,12.9564098 76.7449961,12.8776597 L76.6137459,12.3011686 C76.5087458,11.7751584 76.2724955,11.486408 75.5869658,11.486408 L73.6202327,11.486408 L73.6202327,15.5036725 C73.6202327,16.0004038 73.9059542,16.4991544 74.3814836,16.4991544 L76.8752366,16.4991544 C78.2139882,16.4991544 78.9510084,15.6591534 79.2639895,14.2921326 L79.9182211,14.3708827 L79.3922108,17.3886267 L79.3397107,17.4411267 C79.3397107,17.4411267 77.7909589,17.3886267 77.0034579,17.3886267 L72.410712,17.3936748 Z M99.2251193,15.6369419 C99.2251193,16.2144426 99.4876196,16.555693 100.327621,16.6344431 L100.878871,16.6879527 C100.957621,16.6879527 101.036371,16.7394432 101.036371,16.8444433 L101.036371,17.395694 L101.010121,17.4492037 C101.010121,17.4492037 99.015119,17.395694 98.2023776,17.395694 C97.4663671,17.395694 95.4198743,17.4492037 95.4198743,17.4492037 L95.3663646,17.395694 L95.3663646,16.8444433 C95.3663646,16.7394432 95.4451147,16.6879527 95.5501148,16.6879527 L96.0761251,16.6344431 C96.9413665,16.555693 97.2048764,16.1356925 97.2048764,15.6369419 L97.2048764,6.89568137 C97.2048764,6.3201999 96.8888665,6.15967086 96.0761251,6.08294 L95.5501148,6.02842071 C95.4451147,6.02842071 95.3663646,6.00418991 95.3663646,5.92342058 L95.3663646,5.31866024 L95.3926147,5.26616018 C95.3926147,5.26616018 97.4663671,5.31866024 98.2780989,5.31866024 C98.9858401,5.31866024 101.009112,5.26616018 101.009112,5.26616018 L101.033343,5.31866024 L101.033343,5.89616093 C101.033343,5.97491103 100.978823,6.02741109 100.875842,6.02741109 L100.324592,6.08092077 C99.5098311,6.15866125 99.2220904,6.36967112 99.2220904,6.89568137 L99.2251193,15.6369419 Z" id="wikipedia-wordmark-kcg" fill="#000000" fill-rule="nonzero"></path>
    </g>
</svg>

<svg xmlns="http://www.w3.org/2000/svg" width="120" height="18"><path fill="#000" fill-rule="nonzero" d="m81.902 16.687.604-.054c.788-.078 1.05-.315 1.05-1.127V6.843c0-.684-.185-.684-1.05-.761l-.576-.055c-.105 0-.185-.052-.185-.13v-.578l.025-.053s2.31.053 2.784.053c.497 0 2.783-.053 3.465-.053 4.384 0 6.538 2.73 6.538 6.221 0 4.595-3.256 5.958-6.168 5.958-2.1 0-3.018-.053-3.832-.053-.788 0-2.784.053-2.784.053l-.025-.053v-.552a.147.147 0 0 1 .154-.153Zm5.855 0c2.886 0 4.516-1.074 4.516-4.752 0-2.73-.605-5.908-5.015-5.908-1.024 0-1.68.158-1.68.816v8.663c0 .733.183 1.18 2.179 1.18ZM27.76 0l.059.051v.503c0 .137-.078.205-.231.205-.753.034-1.312.197-1.673.489-.363.294-.645.698-.848 1.225 0 0-1.417 3.242-2.958 6.753l-.232.528-.35.795-.268.61a896.25 896.25 0 0 1-2.473 5.584c-.294.56-.586.827-.869.832-.307.006-.602-.296-.878-.865a258.828 258.828 0 0 1-2.034-4.373l-.234-.511-.208-.456-.576-1.266c-1.083 2.234-2.566 5.262-3.301 6.625-.358.622-.683.892-.979.876-.296-.017-.56-.32-.794-.843C7.287 12.924 3.948 6.186 2.376 2.41c-.291-.696-.51-1.142-.717-1.319C1.45.917 1.019.811.36.776.121.75 0 .692 0 .596V.072L.059.019.43.018.958.017h4.039l.204.001.908.001h.2l.059.052v.5c0 .139-.088.205-.26.205l-.653.028c-.56.023-.839.19-.839.5 0 .145.059.38.189.695.518 1.263 1.562 3.564 2.608 5.828l.261.565c1.39 3 2.707 5.776 2.707 5.776l.157.041 2.789-5.563-.56-1.237-1.916-3.766s-.37-.753-.496-1.004C9.513.971 9.53.882 8.68.77 8.44.738 8.318.708 8.318.59V.063L8.39.01H9.496l.21-.001h3.644l.131.042v.527c0 .12-.085.181-.26.181l-.36.052c-.908.07-.76.442-.156 1.644l1.839 3.763 2.032-4.051c.34-.742.27-.928.13-1.1-.08-.096-.351-.251-.94-.274l-.231-.026a.276.276 0 0 1-.167-.06.172.172 0 0 1-.078-.147v-.5l.071-.052.685-.003h.395l.102-.001h1.996l.192.001h.357l.164.001h.29l.123.001h.326l.025.001h.02l.057.053v.5c0 .139-.077.207-.23.207-.754.036-.908.11-1.184.507-.15.216-.447.682-.755 1.205L15.28 7.423l-.073.15 3.229 6.61.194.053L23.72 2.16c.177-.487.15-.832-.078-1.035-.228-.197-.389-.315-.978-.34l-.478-.023a.275.275 0 0 1-.167-.061.174.174 0 0 1-.08-.147V.051L22.012 0h5.75Zm9.652 5.298c.095.111.095.52 0 .631-.938.112-1.224.15-1.224 1.692v4.219c0 3.308-1.033 5.668-4.29 5.668-.764 0-2.226-.018-3.211-.78-.906-.67-1.383-1.99-1.383-3.792V7.621c0-1.543-.27-1.636-1.223-1.692-.096-.111-.096-.52 0-.632.794.019 1.589.038 2.32.038.747 0 1.812-.02 2.59-.038.096.112.096.52 0 .632-1.223.056-1.462.149-1.462 1.692v4.93c.007 1.152.08 2.429.81 3.247.478.54 1.13.93 1.892.93 2.686 0 2.924-2.472 2.924-4.554V7.621c0-1.543-.27-1.561-1.462-1.692-.095-.111-.095-.52 0-.631l.242.006.493.011c.492.012.966.02 1.283.02.43 0 1.081-.019 1.7-.037ZM107.77 17.45c-.004.001-2.64-.048-3.409-.052-.22 0-.536.005-.866.012l-.333.008c-.606.015-1.17.033-1.17.033h-.08l-.054-.053v-.499c0-.13.079-.209.211-.209 1.156-.079 1.81-.29 2.545-1.97l5.827-13.65c.288-.683.499-.947.894-.947l.033.002a.833.833 0 0 1 .048-.002c.366 0 .498.264.707.789l5.381 14.227c.369 1.025.895 1.418 1.945 1.523l.287.025c.133 0 .264.078.264.211v.497l-.079.053-.075-.002c-.006.002-1.855-.047-2.912-.051h-.059c-.294 0-.757.005-1.252.013l-.374.006c-.94.015-1.866.034-1.866.034h-.08l-.025-.053v-.497c0-.133.052-.211.187-.211l.735-.054c.996-.077 1.366-.394 1.102-1.127l-1.601-4.439h-5.381c-.63 0-.788.105-.918.445l-1.524 3.807c-.262.66.08 1.239 1.05 1.317l.762.054c.105 0 .21.079.21.209v.499l-.053.053h-.013l-.064-.001Zm2.975-14.454-2.609 6.63c-.105.265.078.342.655.342h4.488l-2.534-6.972Zm-68.551 12.64c0 .578.341.867 1.102.998l.29.054c.078.025.157.051.157.156v.552l-.027.053s-1.653-.053-2.44-.053c-.736 0-2.888.053-2.888.053l-.053-.053v-.552c0-.105.079-.156.184-.156l.525-.054c.787-.078 1.129-.498 1.129-.997V6.896c0-.576-.29-.736-1.13-.813l-.524-.055c-.105 0-.184-.024-.184-.105V5.32l.026-.053s2.153.053 2.967.053c.736 0 2.388-.053 2.388-.053l.027.053v.577c0 .079-.053.105-.158.131l-.289.054c-.813.156-1.102.289-1.102.815v3.964c.866 0 1.365-.444 2.52-1.68 1.05-1.157 1.864-2.124 1.864-2.626 0-.21-.237-.445-.762-.526-.105-.024-.157-.052-.157-.13V5.29l.026-.024s2.126.053 2.888.053c.682 0 1.837-.053 1.837-.053l.079.024v.606c0 .079-.079.131-.21.131-1.024.08-1.733.132-2.678 1.208l-2.257 2.597c-.446.474-.604.76-.604.972 0 .157.105.288.236.445l3.964 4.778c.315.366.945.525 1.47.629l.131.025c.08.025.184.078.184.156v.552l-.079.026s-1.39-.026-2.126-.026c-.656 0-1.601.026-1.601.026l-.026-.026v-.315c0-.343-.027-.63-.394-1.05l-2.914-3.623c-.394-.526-.814-.655-1.391-.655v3.89Zm13.771 0c0 .578.263.92 1.103.998l.55.054c.08 0 .158.051.158.156v.552l-.026.053s-1.995-.053-2.809-.053c-.735 0-2.782.053-2.782.053l-.053-.053v-.552c0-.105.08-.156.184-.156l.525-.054c.866-.078 1.129-.498 1.129-.997V6.896c0-.576-.315-.736-1.129-.813l-.525-.055c-.105 0-.184-.024-.184-.105V5.32l.027-.053s2.073.053 2.887.053c.709 0 2.73-.053 2.73-.053l.026.053v.577c0 .079-.052.131-.157.131l-.551.054c-.814.078-1.103.289-1.103.815v8.74Zm5.288-8.692c0-.814-.34-.84-1.575-.919-.157 0-.183-.077-.183-.13V5.29l.052-.026c.394 0 1.943.053 2.704.053.735 0 1.785-.053 2.756-.053 3.726 0 4.408 1.837 4.408 3.204 0 1.576-.761 4.042-4.487 4.042-.656 0-1.18-.053-1.654-.262v3.515c0 .577.315.71 1.156.84l.526.079c.105.025.184.053.184.156v.552l-.024.053s-2.1-.053-2.915-.053c-.735 0-2.703.053-2.703.053l-.027-.053v-.552c0-.105.053-.13.158-.156l.551-.079c.814-.105 1.076-.341 1.076-.84l-.003-8.819Zm2.022 4.569c.525.21 1.18.236 1.706.236 1.576 0 2.334-.947 2.334-2.966 0-2.258-1.024-2.757-2.465-2.757-1.261 0-1.576.237-1.576.92v4.567Zm9.136 5.88c-.788 0-2.598.054-2.598.054l-.027-.053v-.578c0-.051.027-.13.157-.13l.606-.054c.815-.078 1.051-.603 1.051-1.127V6.842c0-.606-.315-.71-1.051-.761l-.606-.055c-.157-.024-.157-.077-.157-.105v-.604l.027-.053s2.046.053 2.834.053h3.859c.787 0 2.652-.053 2.652-.053l.054.053c.025 1.128.208 2.154.394 3.15l-.654.106c-.288-.973-.786-2.363-2.466-2.363h-2.1c-.5 0-.762.184-.762.63v3.806h1.968c.736 0 .919-.315 1.025-.84l.156-.55c0-.08.054-.133.158-.133h.444c.055 0 .055.027.055.079-.055.576-.158 1.313-.158 1.943 0 .655.105 1.208.158 1.811l-.055.054h-.444c-.13 0-.186-.054-.186-.132l-.131-.577c-.105-.526-.342-.815-1.027-.815H73.62v4.018c0 .496.286.995.761.995h2.494c1.339 0 2.076-.84 2.389-2.207l.654.079-.526 3.018-.052.052s-1.549-.052-2.337-.052l-4.592.005Zm26.814-1.756c0 .577.263.919 1.103.997l.55.054c.08 0 .158.051.158.156v.552l-.026.053s-1.995-.053-2.808-.053c-.736 0-2.782.053-2.782.053l-.054-.053v-.552c0-.105.08-.156.184-.156l.526-.054c.865-.078 1.129-.498 1.129-.997V6.896c0-.576-.316-.736-1.129-.813l-.526-.055c-.105 0-.184-.024-.184-.105V5.32l.027-.053s2.073.053 2.885.053c.708 0 2.731-.053 2.731-.053l.024.053v.577c0 .079-.054.131-.157.131l-.551.054c-.815.078-1.103.289-1.103.815l.003 8.74Z"/></svg>
